src/img/coffee/feature-3.svg

<svg width="61" height="80" viewBox="0 0 61 80" fill="none" xmlns="http://www.w3.org/2000/svg">
<path fill-rule="evenodd" clip-rule="evenodd" d="M61 28C61 28.7363 60.4062 29.3333 59.6738 29.3333H58.3477V72H59.6738C60.4062 72 61 72.597 61 73.3334V78.6666C61 79.403 60.4062 80 59.6738 80H1.32617C0.59375 80 0 79.403 0 78.6666V73.3334C0 72.597 0.59375 72 1.32617 72H2.65234V29.3333H1.32617C0.59375 29.3333 0 28.7363 0 28V6.66669C0.00439453 2.98669 2.97021 0.0043335 6.63037 0H54.3696C58.0298 0.0043335 60.9956 2.98669 61 6.66669V28ZM6.63037 2.66669C4.43359 2.66669 2.65234 4.45752 2.65234 6.66669V26.6667H58.3481V6.66669C58.3481 4.45752 56.5669 2.66669 54.3696 2.66669H6.63037ZM41.0742 72C41.9521 70.8528 42.4302 69.4473 42.4351 68V64H45.0869C47.2842 64 49.0654 62.2091 49.0654 60V54.6666C49.0654 52.4575 47.2842 50.6666 45.0869 50.6666H19.8916C19.1592 50.6666 18.5654 51.2637 18.5654 52V68C18.5703 69.4473 19.0483 70.8528 19.9258 72H10.6089V29.3333H19.8916V36C19.8916 36.7363 20.4854 37.3333 21.2178 37.3333H26.522V41.3333C26.522 42.0697 27.1157 42.6666 27.8481 42.6666H33.1523C33.8848 42.6666 34.4785 42.0697 34.4785 41.3333V37.3333H39.7827C40.5151 37.3333 41.1089 36.7363 41.1089 36V29.3333H50.3916V72H41.0742ZM21.2173 53.3334V68C21.2173 70.2092 22.9985 72 25.1953 72H35.8042C38.0015 72 39.7827 70.2092 39.7827 68V53.3334H21.2173ZM45.0869 53.3334C45.8188 53.3334 46.4126 53.9304 46.4126 54.6667V60C46.4126 60.7363 45.8188 61.3334 45.0869 61.3334H42.4346V53.3334H45.0869ZM31.8262 37.3333H29.1738V40H31.8262V37.3333ZM22.5435 34.6666V29.3333H38.4565V34.6666H22.5435ZM7.95654 29.3333H5.3042V72H7.95654V29.3333ZM58.3481 77.3333H2.65234V74.6666H58.3481V77.3333ZM53.0435 72H55.6958V29.3333H53.0435V72Z" fill="#F3084E"/>
<path d="M0 0H2.65217V2.66667H0V0Z" transform="translate(29.1738 45.3333)" fill="#F3084E"/>
<path fill-rule="evenodd" clip-rule="evenodd" d="M17.2393 18.6667H1.32617C0.59375 18.6667 0 18.0696 0 17.3333V1.33331C0 0.596985 0.59375 0 1.32617 0H17.2393C17.9717 0 18.5654 0.596985 18.5654 1.33331V17.3333C18.5654 18.0696 17.9717 18.6667 17.2393 18.6667ZM15.9131 2.66669H2.65234V16H15.9131V2.66669Z" transform="translate(9.28271 5.33331)" fill="#F3084E"/>
<path fill-rule="evenodd" clip-rule="evenodd" d="M6.63037 8H1.32617C0.59375 8 0 7.40302 0 6.66669V1.33331C0 0.596985 0.59375 0 1.32617 0H6.63037C7.36279 0 7.95654 0.596985 7.95654 1.33331V6.66669C7.95654 7.40302 7.36279 8 6.63037 8ZM5.30469 2.66669H2.65234V5.33337H5.30469V2.66669Z" transform="translate(33.1523 5.33331)" fill="#F3084E"/>
<path fill-rule="evenodd" clip-rule="evenodd" d="M6.63037 8H1.32617C0.59375 8 0 7.40302 0 6.66669V1.33331C0 0.596985 0.59375 0 1.32617 0H6.63037C7.36279 0 7.95654 0.596985 7.95654 1.33331V6.66669C7.95654 7.40302 7.36279 8 6.63037 8ZM5.30469 2.66669H2.65234V5.33337H5.30469V2.66669Z" transform="translate(43.7607 5.33331)" fill="#F3084E"/>
<path fill-rule="evenodd" clip-rule="evenodd" d="M6.63037 8H1.32617C0.59375 8 0 7.40302 0 6.66669V1.33331C0 0.596985 0.59375 0 1.32617 0H6.63037C7.36279 0 7.95654 0.596985 7.95654 1.33331V6.66669C7.95654 7.40302 7.36279 8 6.63037 8ZM5.30469 2.66669H2.65234V5.33337H5.30469V2.66669Z" transform="translate(43.7607 16)" fill="#F3084E"/>
<path fill-rule="evenodd" clip-rule="evenodd" d="M6.63037 8H1.32617C0.59375 8 0 7.40302 0 6.66669V1.33331C0 0.596985 0.59375 0 1.32617 0H6.63037C7.36279 0 7.95654 0.596985 7.95654 1.33331V6.66669C7.95654 7.40302 7.36279 8 6.63037 8ZM5.30469 2.66669H2.65234V5.33337H5.30469V2.66669Z" transform="translate(33.1523 16)" fill="#F3084E"/>
</svg>

<svg width="61" height="80" fill="none" xmlns="http://www.w3.org/2000/svg"><path fill-rule="evenodd" clip-rule="evenodd" d="M61 28a1.33 1.33 0 0 1-1.326 1.333h-1.326V72h1.326A1.33 1.33 0 0 1 61 73.333v5.334A1.33 1.33 0 0 1 59.674 80H1.326A1.33 1.33 0 0 1 0 78.667v-5.334A1.33 1.33 0 0 1 1.326 72h1.326V29.333H1.326A1.33 1.33 0 0 1 0 28V6.667C.004 2.987 2.97.004 6.63 0h47.74c3.66.004 6.626 2.987 6.63 6.667V28zM6.63 2.667c-2.196 0-3.978 1.79-3.978 4v20h55.696v-20c0-2.21-1.781-4-3.978-4H6.63zM41.074 72a6.62 6.62 0 0 0 1.361-4v-4h2.652c2.197 0 3.978-1.79 3.978-4v-5.333c0-2.21-1.78-4-3.978-4H19.892A1.33 1.33 0 0 0 18.565 52v16a6.621 6.621 0 0 0 1.36 4H10.61V29.333h9.283V36a1.33 1.33 0 0 0 1.326 1.333h5.304v4a1.33 1.33 0 0 0 1.326 1.334h5.304a1.33 1.33 0 0 0 1.326-1.334v-4h5.305A1.33 1.33 0 0 0 41.109 36v-6.667h9.283V72h-9.318zM21.217 53.333V68c0 2.21 1.782 4 3.978 4h10.61c2.197 0 3.978-1.79 3.978-4V53.333H21.217zm23.87 0a1.33 1.33 0 0 1 1.326 1.334V60a1.33 1.33 0 0 1-1.326 1.333h-2.652v-8h2.652zm-13.26-16h-2.653V40h2.652v-2.667zm-9.284-2.666v-5.334h15.913v5.334H22.543zM7.958 29.333H5.304V72h2.653V29.333zm50.391 48H2.652v-2.666h55.696v2.666zM53.044 72h2.652V29.333h-2.652V72z" fill="#F3084E"/><path d="M29.174 45.333h2.652V48h-2.652v-2.667z" fill="#F3084E"/><path fill-rule="evenodd" clip-rule="evenodd" d="M26.522 24H10.609a1.33 1.33 0 0 1-1.326-1.333v-16a1.33 1.33 0 0 1 1.326-1.334h15.913a1.33 1.33 0 0 1 1.326 1.334v16A1.33 1.33 0 0 1 26.522 24zM25.196 8h-13.26v13.333h13.26V8zM39.783 13.333h-5.305A1.33 1.33 0 0 1 33.152 12V6.667a1.33 1.33 0 0 1 1.326-1.334h5.305a1.33 1.33 0 0 1 1.326 1.334V12a1.33 1.33 0 0 1-1.326 1.333zM38.457 8h-2.652v2.667h2.652V8zM50.391 13.333h-5.304A1.33 1.33 0 0 1 43.76 12V6.667a1.33 1.33 0 0 1 1.326-1.334h5.304a1.33 1.33 0 0 1 1.326 1.334V12a1.33 1.33 0 0 1-1.326 1.333zM49.065 8h-2.652v2.667h2.652V8zM50.391 24h-5.304a1.33 1.33 0 0 1-1.326-1.333v-5.334A1.33 1.33 0 0 1 45.087 16h5.304a1.33 1.33 0 0 1 1.326 1.333v5.334A1.33 1.33 0 0 1 50.391 24zm-1.326-5.333h-2.652v2.666h2.652v-2.666zM39.783 24h-5.305a1.33 1.33 0 0 1-1.326-1.333v-5.334A1.33 1.33 0 0 1 34.478 16h5.305a1.33 1.33 0 0 1 1.326 1.333v5.334A1.33 1.33 0 0 1 39.783 24zm-1.326-5.333h-2.652v2.666h2.652v-2.666z" fill="#F3084E"/></svg>
